Newaita-dark/apps/32/utilities-terminal.svg

<svg height="32" viewBox="0 0 32 32" width="32" xmlns="http://www.w3.org/2000/svg" xmlns:xlink="http://www.w3.org/1999/xlink"><linearGradient id="a" gradientUnits="userSpaceOnUse" x1="15.214992" x2="15.214992" y1="28.033934" y2="29.35697800003"><stop offset="0" stop-opacity=".27451"/><stop offset="1" stop-opacity="0"/></linearGradient><linearGradient id="b"><stop offset="0" stop-opacity=".313726"/><stop offset=".222222" stop-opacity=".27451"/><stop offset="1" stop-opacity="0"/></linearGradient><radialGradient id="c" cx="450.908936" cy="189.579361" gradientTransform="matrix(.00000017 -.0781325 -.140638 -.0000001 53.453689 63.595333)" gradientUnits="userSpaceOnUse" r="21.166656" xlink:href="#b"/><radialGradient id="d" cx="450.908936" cy="189.579361" gradientTransform="matrix(-.00000017 .0781325 .140638 .0000001 -21.700654 -7.527479)" gradientUnits="userSpaceOnUse" r="21.166656" xlink:href="#b"/><radialGradient id="e" cx="450.908936" cy="189.579361" gradientTransform="matrix(-.00000017 -.0781325 .140638 -.0000001 -21.700654 63.595333)" gradientUnits="userSpaceOnUse" r="21.166656" xlink:href="#b"/><radialGradient id="f" cx="450.908936" cy="189.579361" gradientTransform="matrix(.00000017 .0781325 -.140638 .0000001 53.453687 -7.527479)" gradientUnits="userSpaceOnUse" r="21.166656" xlink:href="#b"/><linearGradient id="g" gradientTransform="matrix(.0720736 0 0 .190626 -4.909206 31.176492)" gradientUnits="userSpaceOnUse" x1="306.752655" x2="305.954529" y1="-16.485477" y2="-141.414581"><stop offset="0" stop-color="#616161"/><stop offset="1" stop-color="#757575"/></linearGradient><linearGradient id="h" gradientUnits="userSpaceOnUse" x1="15.876524" x2="15.876524" y1="28.033934" y2="4.219148"><stop offset="0" stop-color="#424242"/><stop offset="1" stop-color="#616161"/></linearGradient><linearGradient id="i" gradientUnits="userSpaceOnUse" x1="12.56891449997" x2="12.56891449997" y1="28.033934" y2="4.219148"><stop offset="0" stop-color="#bdbdbd"/><stop offset="1" stop-color="#e0e0e0"/></linearGradient><path d="m4.628906 28.109375h22.492188v1.246094h-22.492188zm0 0" fill="url(#a)"/><path d="m27.121094 28.035156h2.648437v-1.324218h-2.648437zm0 0" fill="url(#c)"/><path d="m4.628906 28.035156h-2.644531v1.320313h2.644531zm0 0" fill="url(#d)"/><path d="m4.628906 28.035156h-2.644531v-1.324218h2.644531zm0 0" fill="url(#e)"/><path d="m27.121094 28.035156h2.648437v1.320313h-2.648437zm0 0" fill="url(#f)"/><path d="m3.308594 4.21875h25.136718c.730469 0 1.324219.558594 1.324219 1.25v21.316406c0 .6875-.59375 1.25-1.324219 1.25h-25.136718c-.730469 0-1.324219-.5625-1.324219-1.25v-21.316406c0-.691406.59375-1.25 1.324219-1.25zm0 0" fill="url(#g)"/><path d="m3.96875 5.542969h23.816406c.363282 0 .660156.296875.660156.660156v19.847656c0 .363281-.296874.660157-.660156.660157h-23.816406c-.363281 0-.660156-.296876-.660156-.660157v-19.847656c0-.363281.296875-.660156.660156-.660156zm0 0" fill="url(#h)"/><path d="m3.308594 4.21875c-.734375 0-1.324219.558594-1.324219 1.25v.332031c0-.695312.589844-1.25 1.324219-1.25h25.136718c.734376 0 1.324219.554688 1.324219 1.25v-.332031c0-.691406-.589843-1.25-1.324219-1.25zm0 0" fill="#fff" fill-opacity=".313726"/><path d="m3.308594 28.042969c-.734375 0-1.324219-.558594-1.324219-1.25v-.332031c0 .695312.589844 1.25 1.324219 1.25h25.136718c.734376 0 1.324219-.554688 1.324219-1.25v.332031c0 .691406-.589843 1.25-1.324219 1.25zm0 0" fill-opacity=".235294"/><path d="m52.932445-147.506445h402.149097c11.686384 0 21.185477 8.936646 21.185477 19.99809v341.029933c0 10.99895-9.499093 19.998091-21.185477 19.998091h-402.149097c-11.686384 0-21.185477-8.999141-21.185477-19.998091v-341.029933c0-11.061444 9.499093-19.99809 21.185477-19.99809zm0 0" fill="none" stroke="#212121" stroke-linecap="round" stroke-width="3" transform="matrix(.062506 0 0 .062506 0 13.438783)"/><path d="m6.339844 8.027344c-.257813-.257813-.675782-.257813-.933594 0-.257812.257812-.257812.675781 0 .9375l1.871094 1.871094-1.871094 1.871093c-.257812.257813-.257812.675781 0 .933594s.675781.257813.933594 0l2.339844-2.339844c.015624-.015625.03125-.03125.046874-.050781.210938-.257812.195313-.640625-.046874-.882812zm0 0" fill="url(#i)"/><path d="m5.875 7.832031c-.171875 0-.339844.066407-.46875.195313-.171875.171875-.230469.414062-.175781.632812.03125-.113281.085937-.21875.175781-.304687.257812-.261719.675781-.261719.933594 0l2.339844 2.335937c.089843.089844.144531.195313.175781.304688.054687-.21875-.003907-.457032-.175781-.628906l-2.339844-2.339844c-.128906-.128906-.296875-.195313-.464844-.195313zm1.238281 3.164063-1.707031 1.710937c-.171875.171875-.230469.410157-.175781.628907.03125-.109376.085937-.21875.175781-.304688l1.871094-1.871094zm0 0" fill="#fff" fill-opacity=".784314"/><path d="m5.234375 8.660156c-.058594.21875 0 .460938.171875.632813l1.707031 1.707031.164063-.164062-1.871094-1.871094c-.085938-.089844-.144531-.191406-.171875-.304688zm3.617187 2.339844c-.023437.089844-.0625.175781-.125.25-.015624.019531-.03125.035156-.046874.050781l-2.339844 2.339844c-.257813.257813-.675782.257813-.933594 0-.085938-.085937-.144531-.191406-.171875-.300781-.058594.21875 0 .460937.171875.632812.257812.257813.675781.257813.933594 0l2.339844-2.339844c.015624-.015624.03125-.03125.046874-.050781.136719-.167969.179688-.382812.125-.582031zm0 0" fill-opacity=".235294"/><path d="m101.427814-86.574764c-4.124606-4.124606-10.811467-4.124606-14.936074 0-4.124606 4.124606-4.124606 10.811468 0 14.998568l29.934642 29.934641-29.934642 29.934641c-4.124606 4.124607-4.124606 10.811468 0 14.936074 4.124607 4.124606 10.811468 4.124606 14.936074 0l37.433925-37.433925c.249976-.249976.499953-.499952.749929-.812423 3.374677-4.124606 3.124701-10.249021-.749929-14.123651zm0 0" fill="none" stroke="#212121" stroke-linecap="round" stroke-width="3" transform="matrix(.062506 0 0 .062506 0 13.438783)"/><path d="m3.96875 5.625c-.367188 0-.660156.296875-.660156.660156v.25c0-.367187.292968-.664062.660156-.664062h23.816406c.363282 0 .660156.296875.660156.664062v-.25c0-.363281-.296874-.660156-.660156-.660156zm0 0" fill-opacity=".235294"/><path d="m3.96875 27.046875c-.367188 0-.660156-.292969-.660156-.660156v-.246094c0 .363281.292968.660156.660156.660156h23.816406c.363282 0 .660156-.296875.660156-.660156v.246094c0 .367187-.296874.660156-.660156.660156zm0 0" fill="#fff" fill-opacity=".392157"/><path d="m63.493937-126.320968h381.026113c5.811945 0 10.561492 4.749546 10.561492 10.561491v317.532177c0 5.811945-4.749547 10.561492-10.561492 10.561492h-381.026113c-5.811945 0-10.561492-4.749547-10.561492-10.561492v-317.532177c0-5.811945 4.749547-10.561491 10.561492-10.561491zm0 0" fill="none" stroke="#212121" stroke-linecap="round" stroke-linejoin="round" stroke-width="3" transform="matrix(.062506 0 0 .062506 0 13.438783)"/></svg>

<?xml version="1.0" encoding="UTF-8"?>
<svg xmlns="http://www.w3.org/2000/svg" xmlns:xlink="http://www.w3.org/1999/xlink" width="32px" height="32px" viewBox="0 0 32 32" version="1.1">
<defs>
<linearGradient id="linear0" gradientUnits="userSpaceOnUse" x1="254" y1="233.5" x2="254" y2="254.666672" gradientTransform="matrix(0.062506,0,0,0.062506,-0.661532,13.438783)">
<stop offset="0" style="stop-color:rgb(0%,0%,0%);stop-opacity:0.27451;"/>
<stop offset="1" style="stop-color:rgb(0%,0%,0%);stop-opacity:0;"/>
</linearGradient>
<radialGradient id="radial0" gradientUnits="userSpaceOnUse" cx="450.908936" cy="189.579361" fx="450.908936" fy="189.579361" r="21.166656" gradientTransform="matrix(0.00000017417,-0.0781325,-0.140638,-0.000000101539,53.453689,63.595333)">
<stop offset="0" style="stop-color:rgb(0%,0%,0%);stop-opacity:0.313726;"/>
<stop offset="0.222222" style="stop-color:rgb(0%,0%,0%);stop-opacity:0.27451;"/>
<stop offset="1" style="stop-color:rgb(0%,0%,0%);stop-opacity:0;"/>
</radialGradient>
<radialGradient id="radial1" gradientUnits="userSpaceOnUse" cx="450.908936" cy="189.579361" fx="450.908936" fy="189.579361" r="21.166656" gradientTransform="matrix(-0.00000017417,0.0781325,0.140638,0.000000101539,-21.700654,-7.527479)">
<stop offset="0" style="stop-color:rgb(0%,0%,0%);stop-opacity:0.313726;"/>
<stop offset="0.222222" style="stop-color:rgb(0%,0%,0%);stop-opacity:0.27451;"/>
<stop offset="1" style="stop-color:rgb(0%,0%,0%);stop-opacity:0;"/>
</radialGradient>
<radialGradient id="radial2" gradientUnits="userSpaceOnUse" cx="450.908936" cy="189.579361" fx="450.908936" fy="189.579361" r="21.166656" gradientTransform="matrix(-0.00000017417,-0.0781325,0.140638,-0.000000101539,-21.700654,63.595333)">
<stop offset="0" style="stop-color:rgb(0%,0%,0%);stop-opacity:0.313726;"/>
<stop offset="0.222222" style="stop-color:rgb(0%,0%,0%);stop-opacity:0.27451;"/>
<stop offset="1" style="stop-color:rgb(0%,0%,0%);stop-opacity:0;"/>
</radialGradient>
<radialGradient id="radial3" gradientUnits="userSpaceOnUse" cx="450.908936" cy="189.579361" fx="450.908936" fy="189.579361" r="21.166656" gradientTransform="matrix(0.00000017417,0.0781325,-0.140638,0.000000101539,53.453687,-7.527479)">
<stop offset="0" style="stop-color:rgb(0%,0%,0%);stop-opacity:0.313726;"/>
<stop offset="0.222222" style="stop-color:rgb(0%,0%,0%);stop-opacity:0.27451;"/>
<stop offset="1" style="stop-color:rgb(0%,0%,0%);stop-opacity:0;"/>
</radialGradient>
<linearGradient id="linear1" gradientUnits="userSpaceOnUse" x1="306.752655" y1="-16.485477" x2="305.954529" y2="-141.414581" gradientTransform="matrix(0.0720736,0,0,0.190626,-4.909206,31.176492)">
<stop offset="0" style="stop-color:rgb(38.039216%,38.039216%,38.039216%);stop-opacity:1;"/>
<stop offset="1" style="stop-color:rgb(45.882353%,45.882353%,45.882353%);stop-opacity:1;"/>
</linearGradient>
<linearGradient id="linear2" gradientUnits="userSpaceOnUse" x1="254" y1="233.5" x2="254" y2="-147.5" gradientTransform="matrix(0.062506,0,0,0.062506,0,13.438783)">
<stop offset="0" style="stop-color:rgb(25.882354%,25.882354%,25.882354%);stop-opacity:1;"/>
<stop offset="1" style="stop-color:rgb(38.039216%,38.039216%,38.039216%);stop-opacity:1;"/>
</linearGradient>
<linearGradient id="linear3" gradientUnits="userSpaceOnUse" x1="201.083328" y1="233.5" x2="201.083328" y2="-147.5" gradientTransform="matrix(0.062506,0,0,0.062506,0,13.438783)">
<stop offset="0" style="stop-color:rgb(74.117649%,74.117649%,74.117649%);stop-opacity:1;"/>
<stop offset="1" style="stop-color:rgb(87.843138%,87.843138%,87.843138%);stop-opacity:1;"/>
</linearGradient>
</defs>
<g id="surface1">
<path style=" stroke:none;fill-rule:nonzero;fill:url(#linear0);" d="M 4.628906 28.109375 L 27.121094 28.109375 L 27.121094 29.355469 L 4.628906 29.355469 Z M 4.628906 28.109375 "/>
<path style=" stroke:none;fill-rule:nonzero;fill:url(#radial0);" d="M 27.121094 28.035156 L 29.769531 28.035156 L 29.769531 26.710938 L 27.121094 26.710938 Z M 27.121094 28.035156 "/>
<path style=" stroke:none;fill-rule:nonzero;fill:url(#radial1);" d="M 4.628906 28.035156 L 1.984375 28.035156 L 1.984375 29.355469 L 4.628906 29.355469 Z M 4.628906 28.035156 "/>
<path style=" stroke:none;fill-rule:nonzero;fill:url(#radial2);" d="M 4.628906 28.035156 L 1.984375 28.035156 L 1.984375 26.710938 L 4.628906 26.710938 Z M 4.628906 28.035156 "/>
<path style=" stroke:none;fill-rule:nonzero;fill:url(#radial3);" d="M 27.121094 28.035156 L 29.769531 28.035156 L 29.769531 29.355469 L 27.121094 29.355469 Z M 27.121094 28.035156 "/>
<path style=" stroke:none;fill-rule:nonzero;fill:url(#linear1);" d="M 3.308594 4.21875 L 28.445312 4.21875 C 29.175781 4.21875 29.769531 4.777344 29.769531 5.46875 L 29.769531 26.785156 C 29.769531 27.472656 29.175781 28.035156 28.445312 28.035156 L 3.308594 28.035156 C 2.578125 28.035156 1.984375 27.472656 1.984375 26.785156 L 1.984375 5.46875 C 1.984375 4.777344 2.578125 4.21875 3.308594 4.21875 Z M 3.308594 4.21875 "/>
<path style=" stroke:none;fill-rule:nonzero;fill:url(#linear2);" d="M 3.96875 5.542969 L 27.785156 5.542969 C 28.148438 5.542969 28.445312 5.839844 28.445312 6.203125 L 28.445312 26.050781 C 28.445312 26.414062 28.148438 26.710938 27.785156 26.710938 L 3.96875 26.710938 C 3.605469 26.710938 3.308594 26.414062 3.308594 26.050781 L 3.308594 6.203125 C 3.308594 5.839844 3.605469 5.542969 3.96875 5.542969 Z M 3.96875 5.542969 "/>
<path style=" stroke:none;fill-rule:nonzero;fill:rgb(100%,100%,100%);fill-opacity:0.313726;" d="M 3.308594 4.21875 C 2.574219 4.21875 1.984375 4.777344 1.984375 5.46875 L 1.984375 5.800781 C 1.984375 5.105469 2.574219 4.550781 3.308594 4.550781 L 28.445312 4.550781 C 29.179688 4.550781 29.769531 5.105469 29.769531 5.800781 L 29.769531 5.46875 C 29.769531 4.777344 29.179688 4.21875 28.445312 4.21875 Z M 3.308594 4.21875 "/>
<path style=" stroke:none;fill-rule:nonzero;fill:rgb(0%,0%,0%);fill-opacity:0.235294;" d="M 3.308594 28.042969 C 2.574219 28.042969 1.984375 27.484375 1.984375 26.792969 L 1.984375 26.460938 C 1.984375 27.15625 2.574219 27.710938 3.308594 27.710938 L 28.445312 27.710938 C 29.179688 27.710938 29.769531 27.15625 29.769531 26.460938 L 29.769531 26.792969 C 29.769531 27.484375 29.179688 28.042969 28.445312 28.042969 Z M 3.308594 28.042969 "/>
<path style="fill:none;stroke-width:3;stroke-linecap:round;stroke-linejoin:miter;stroke:rgb(12.941177%,12.941177%,12.941177%);stroke-opacity:1;stroke-miterlimit:4;" d="M 52.932445 -147.506445 L 455.081542 -147.506445 C 466.767926 -147.506445 476.267019 -138.569799 476.267019 -127.508355 L 476.267019 213.521578 C 476.267019 224.520528 466.767926 233.519669 455.081542 233.519669 L 52.932445 233.519669 C 41.246061 233.519669 31.746968 224.520528 31.746968 213.521578 L 31.746968 -127.508355 C 31.746968 -138.569799 41.246061 -147.506445 52.932445 -147.506445 Z M 52.932445 -147.506445 " transform="matrix(0.062506,0,0,0.062506,0,13.438783)"/>
<path style=" stroke:none;fill-rule:nonzero;fill:url(#linear3);" d="M 6.339844 8.027344 C 6.082031 7.769531 5.664062 7.769531 5.40625 8.027344 C 5.148438 8.285156 5.148438 8.703125 5.40625 8.964844 L 7.277344 10.835938 L 5.40625 12.707031 C 5.148438 12.964844 5.148438 13.382812 5.40625 13.640625 C 5.664062 13.898438 6.082031 13.898438 6.339844 13.640625 L 8.679688 11.300781 C 8.695312 11.285156 8.710938 11.269531 8.726562 11.25 C 8.9375 10.992188 8.921875 10.609375 8.679688 10.367188 Z M 6.339844 8.027344 "/>
<path style=" stroke:none;fill-rule:nonzero;fill:rgb(100%,100%,100%);fill-opacity:0.784314;" d="M 5.875 7.832031 C 5.703125 7.832031 5.535156 7.898438 5.40625 8.027344 C 5.234375 8.199219 5.175781 8.441406 5.230469 8.660156 C 5.261719 8.546875 5.316406 8.441406 5.40625 8.355469 C 5.664062 8.09375 6.082031 8.09375 6.339844 8.355469 L 8.679688 10.691406 C 8.769531 10.78125 8.824219 10.886719 8.855469 10.996094 C 8.910156 10.777344 8.851562 10.539062 8.679688 10.367188 L 6.339844 8.027344 C 6.210938 7.898438 6.042969 7.832031 5.875 7.832031 Z M 7.113281 10.996094 L 5.40625 12.707031 C 5.234375 12.878906 5.175781 13.117188 5.230469 13.335938 C 5.261719 13.226562 5.316406 13.117188 5.40625 13.03125 L 7.277344 11.160156 Z M 7.113281 10.996094 "/>
<path style=" stroke:none;fill-rule:nonzero;fill:rgb(0%,0%,0%);fill-opacity:0.235294;" d="M 5.234375 8.660156 C 5.175781 8.878906 5.234375 9.121094 5.40625 9.292969 L 7.113281 11 L 7.277344 10.835938 L 5.40625 8.964844 C 5.320312 8.875 5.261719 8.773438 5.234375 8.660156 Z M 8.851562 11 C 8.828125 11.089844 8.789062 11.175781 8.726562 11.25 C 8.710938 11.269531 8.695312 11.285156 8.679688 11.300781 L 6.339844 13.640625 C 6.082031 13.898438 5.664062 13.898438 5.40625 13.640625 C 5.320312 13.554688 5.261719 13.449219 5.234375 13.339844 C 5.175781 13.558594 5.234375 13.800781 5.40625 13.972656 C 5.664062 14.230469 6.082031 14.230469 6.339844 13.972656 L 8.679688 11.632812 C 8.695312 11.617188 8.710938 11.601562 8.726562 11.582031 C 8.863281 11.414062 8.90625 11.199219 8.851562 11 Z M 8.851562 11 "/>
<path style="fill:none;stroke-width:3;stroke-linecap:round;stroke-linejoin:miter;stroke:rgb(12.941177%,12.941177%,12.941177%);stroke-opacity:1;stroke-miterlimit:4;" d="M 101.427814 -86.574764 C 97.303208 -90.69937 90.616347 -90.69937 86.49174 -86.574764 C 82.367134 -82.450158 82.367134 -75.763296 86.49174 -71.576196 L 116.426382 -41.641555 L 86.49174 -11.706914 C 82.367134 -7.582307 82.367134 -0.895446 86.49174 3.22916 C 90.616347 7.353766 97.303208 7.353766 101.427814 3.22916 L 138.861739 -34.204765 C 139.111715 -34.454741 139.361692 -34.704717 139.611668 -35.017188 C 142.986345 -39.141794 142.736369 -45.266209 138.861739 -49.140839 Z M 101.427814 -86.574764 " transform="matrix(0.062506,0,0,0.062506,0,13.438783)"/>
<path style=" stroke:none;fill-rule:nonzero;fill:rgb(0%,0%,0%);fill-opacity:0.235294;" d="M 3.96875 5.625 C 3.601562 5.625 3.308594 5.921875 3.308594 6.285156 L 3.308594 6.535156 C 3.308594 6.167969 3.601562 5.871094 3.96875 5.871094 L 27.785156 5.871094 C 28.148438 5.871094 28.445312 6.167969 28.445312 6.535156 L 28.445312 6.285156 C 28.445312 5.921875 28.148438 5.625 27.785156 5.625 Z M 3.96875 5.625 "/>
<path style=" stroke:none;fill-rule:nonzero;fill:rgb(100%,100%,100%);fill-opacity:0.392157;" d="M 3.96875 27.046875 C 3.601562 27.046875 3.308594 26.753906 3.308594 26.386719 L 3.308594 26.140625 C 3.308594 26.503906 3.601562 26.800781 3.96875 26.800781 L 27.785156 26.800781 C 28.148438 26.800781 28.445312 26.503906 28.445312 26.140625 L 28.445312 26.386719 C 28.445312 26.753906 28.148438 27.046875 27.785156 27.046875 Z M 3.96875 27.046875 "/>
<path style="fill:none;stroke-width:3;stroke-linecap:round;stroke-linejoin:round;stroke:rgb(12.941177%,12.941177%,12.941177%);stroke-opacity:1;stroke-miterlimit:4;" d="M 63.493937 -126.320968 L 444.52005 -126.320968 C 450.331995 -126.320968 455.081542 -121.571422 455.081542 -115.759477 L 455.081542 201.7727 C 455.081542 207.584645 450.331995 212.334192 444.52005 212.334192 L 63.493937 212.334192 C 57.681992 212.334192 52.932445 207.584645 52.932445 201.7727 L 52.932445 -115.759477 C 52.932445 -121.571422 57.681992 -126.320968 63.493937 -126.320968 Z M 63.493937 -126.320968 " transform="matrix(0.062506,0,0,0.062506,0,13.438783)"/>
</g>
</svg>
